!!!!SEGMENT: pl-cz--d-ii-28--002_elsner-jozef--missa-f-op-85-gloria.krn
!!!cenid: 18xx:175
!!!COM: Elsner, Józef
!!!COM-rismid: pe30000957
!!!CDT: 1769/06/01-1854/04/18
!!!CNT: Polish
!!!OPR: Missa F op. 85
!!!OTL: Gloria
!!!OMV: 002
!!!PDT: 1847
!!!AGN: Sacred; Mass
!!!SMS-siglum: PL-CZ
!!!SMS-shelfmark: D II-28
!!!SMS-shelfwork: 001-002 M
!!!NIFC-rismid:
!!!URL-scan: http://repozytorium.nifc.pl/skany/pl-cz-nut--dii-28
!!!ONB-nifc: UWAGA: części Mszy: Kyrie, Gloria, Sanctus, Benedictus, Agnus Dei
!!!AIN: 1 bass 2 empty 1 organ
!!!key:
**kern	**kern	**dynam	**kern	**text	**dynam	**kern	**text	**dynam	**kern	**text	**dynam
*	*	*	*	*	*	*group1	*	*	*group1	*	*
*part4	*part4	*part4	*part3	*part3	*part3	*part2	*part2	*part2	*part1	*part1	*part1
*staff5	*staff4	*	*staff3	*staff3	*	*staff2	*staff2	*	*staff1	*staff1	*
*Iorgan	*Iempty	*	*Ibass	*	*	*Iempty	*	*	*Iempty	*	*
*I"Organo	*	*	*I"Basso	*	*	*I""Tenori	*	*	*I""Tenori	*	*
*I'Org	*	*	*I'B	*	*	*I''T	*	*	*I''T	*	*
*clefF4	*clefG2	*	*clefF4	*	*	*clefC4	*	*	*clefC4	*	*
*k[b-]	*k[b-]	*	*k[b-]	*	*	*k[b-]	*	*	*k[b-]	*	*
*F:	*F:	*	*F:	*	*	*F:	*	*	*F:	*	*
*M3/4	*M3/4	*	*M3/4	*	*	*M3/4	*	*	*M3/4	*	*
=1	=1	=1	=1	=1	=1	=1	=1	=1	=1	=1	=1
*	*	*	*	*	*	*^	*	*	*	*	*
!	!LO:TX:a:B:t=Allegro.	!LO:DY:b:rj:t=fr	!	!	!LO:DY:b:rj	!	!	!	!LO:DY:b:rj	!LO:TX:a:B:t=Allegro	!	!LO:DY:b:rj
(2.FF/ 2.F	(2.f/ 2.a 2.cc 2.ff	f	4.F\	Glo-	f	4.A/	4.A\	Glo-	f	4.f\	Glo-	f
.	.	.	8F\	-ri-	.	8A/	8A\	-ri-	.	8f\	-ri-	.
.	.	.	4F\	-a	.	4A/	4A\	-a	.	4f\	-a	.
*	*	*	*	*	*	*v	*v	*	*	*	*	*
=2	=2	=2	=2	=2	=2	=2	=2	=2	=2	=2	=2
!LO:N:vis=2	!	!	!	!	!	!	!	!	!	!	!
(2.DD/) 2.D	2.f/) 2.a 2.dd 2.ff	.	4.D\	Glo-	.	4.A\	Glo-	.	4.f\	Glo-	.
.	.	.	8D\	-ri-	.	8A\	-ri-	.	8f\	-ri-	.
.	.	.	4D\	-a	.	4A\	-a	.	4f\	-a	.
=3	=3	=3	=3	=3	=3	=3	=3	=3	=3	=3	=3
*	*	*	*	*	*	*^	*	*	*	*	*
!	!	!	!LO:N:vis=4	!	!	!	!	!	!	!	!	!
2BBB-/) 2BB-	2g/ 2b- 2dd 2ff	.	4.BB-/	in	.	4.G/	4.G\	in	.	4.f\	in	.
.	.	.	8BB-/	ex-	.	8G/	8G\	ex-	.	8f\	ex-	.
4CC/ 4C	4g/ 4b- 4cc 4ee	.	8C/	-cel-	.	8B-/	8G\	-cel-	.	8e\	-cel-	.
.	.	.	8C/	-sis	.	8B-/	8G\	-sis	.	8e\	-sis	.
*	*	*	*	*	*	*v	*v	*	*	*	*	*
=4	=4	=4	=4	=4	=4	=4	=4	=4	=4	=4	=4
2.F\ 2.A 2.c	16a\LL 16cc 16ff	.	2.F\	De-	.	2.A\	De-	.	2.f\	De-	.
.	16cc\	.	.	.	.	.	.	.	.	.	.
.	16dd\	.	.	.	.	.	.	.	.	.	.
.	16ee\JJ	.	.	.	.	.	.	.	.	.	.
.	16ff\LL	.	.	.	.	.	.	.	.	.	.
.	16gg\	.	.	.	.	.	.	.	.	.	.
.	16aa\	.	.	.	.	.	.	.	.	.	.
.	16bb-\JJ	.	.	.	.	.	.	.	.	.	.
.	16ccc\LL	.	.	.	.	.	.	.	.	.	.
.	16aa\	.	.	.	.	.	.	.	.	.	.
.	16ccc\	.	.	.	.	.	.	.	.	.	.
.	16aa\JJ	.	.	.	.	.	.	.	.	.	.
=5	=5	=5	=5	=5	=5	=5	=5	=5	=5	=5	=5
4F\ 4A 4c	4ff\	.	2F\	-o	.	2A\	-o	.	2f\	-o	.
4FF/ 4C 4F	4ff\ 4aa 4ccc 4fff	.	.	.	.	.	.	.	.	.	.
4r	4r	.	4r	.	.	4r	.	.	4r	.	.
=6	=6	=6	=6	=6	=6	=6	=6	=6	=6	=6	=6
!	!	!	!	!	!LO:DY:b:rj	!	!	!LO:DY:b:rj	!	!	!LO:DY:b:rj
4d\	4dd\	.	2d\	et	p	2d\	et	p	2d\	et	p
4r	4r	.	.	.	.	.	.	.	.	.	.
4c\	4cc\	.	4c\	in-	.	4c\	in-	.	4c\	in-	.
=7	=7	=7	=7	=7	=7	=7	=7	=7	=7	=7	=7
4Bn\	4bn\	.	2Bn\	-ter-	.	2Bn\	-ter-	.	2Bn\	-ter-	.
4r	4r	.	.	.	.	.	.	.	.	.	.
4c\	4cc\	.	4c\	-ra	.	4c\	-ra	.	4c\	-ra	.
=8	=8	=8	=8	=8	=8	=8	=8	=8	=8	=8	=8
4A-X\	4a-X/	.	2A-X\	pax	.	2A-X/	pax	.	2A-X/	pax	.
4r	4r	.	.	.	.	.	.	.	.	.	.
4G\	4g/	.	4G\	ho-	.	4G/	ho-	.	4G/	ho-	.
=9	=9	=9	=9	=9	=9	=9	=9	=9	=9	=9	=9
4F\	4f/	.	2F\	-mi-	.	2F/	-mi-	.	2F/	-mi-	.
4r	4r	.	.	.	.	.	.	.	.	.	.
4G\	4g/	.	4G\	-ni-	.	4G/	-ni-	.	4G/	-ni-	.
=10	=10	=10	=10	=10	=10	=10	=10	=10	=10	=10	=10
4E\	4e/	.	2E\	-bus	.	2E/	-bus	.	2E/	-bus	.
4r	4r	.	.	.	.	.	.	.	.	.	.
4CC/ 4C	8e/L 8g	.	8C/	bo-	.	8E/	bo-	.	8G/	bo-	.
.	8f/J 8a	.	8C/	-nae	.	8F/	-nae	.	8A/	-nae	.
=11	=11	=11	=11	=11	=11	=11	=11	=11	=11	=11	=11
!!LO:PB:g=original
*	*	*	*	*	*	*^	*	*	*	*	*
2.CC/ 2.C	4g\ 4b-\	.	2C/	vo-	.	2G/	2G\	vo-	.	2B-\	vo-	.
.	4r	.	.	.	.	.	.	.	.	.	.	.
.	4f/ 4a	.	4C/	-lun-	.	4F/	4F\	-lun-	.	4A\	-lun-	.
*	*	*	*	*	*	*v	*v	*	*	*	*	*
=12	=12	=12	=12	=12	=12	=12	=12	=12	=12	=12	=12
2.CC/ 2.C	2e/ 2g	.	2.C/	-ta-	.	2E/	-ta-	.	2G/	-ta-	.
.	8.d/L 8.f	.	.	.	.	8.D/L	.	.	8.F/L	.	.
.	16c/Jk 16e	.	.	.	.	16C/Jk	.	.	16E/Jk	.	.
=13	=13	=13	=13	=13	=13	=13	=13	=13	=13	=13	=13
4CC/ 4C	16c/LL 16e	<	4C/	-tis	.	4C/	-tis	.	4E/	-tis	.
.	16d/ 16f	.	.	.	.	.	.	.	.	.	.
.	16e/ 16g	.	.	.	.	.	.	.	.	.	.
.	16f/JJ 16a	.	.	.	.	.	.	.	.	.	.
2C\ 2E 2G	16e/LL 16g	[	4r	.	.	4r	.	.	4r	.	.
.	16c/	.	.	.	.	.	.	.	.	.	.
.	16e/ 16g	.	.	.	.	.	.	.	.	.	.
.	16c/JJ	.	.	.	.	.	.	.	.	.	.
.	16e/LL	.	4C/	lau-	.	4E/	lau-	.	4c\	lau-	.
.	16g/	.	.	.	.	.	.	.	.	.	.
.	16cc/	.	.	.	.	.	.	.	.	.	.
.	16b-/JJ	.	.	.	.	.	.	.	.	.	.
=14	=14	=14	=14	=14	=14	=14	=14	=14	=14	=14	=14
*^	*	*	*	*	*	*	*	*	*	*	*
2A/	[2C\ 2F	16a/LL	.	2C/	-da-	.	2F/	-da-	.	2A\	-da-	.
.	.	16g/	.	.	.	.	.	.	.	.	.	.
.	.	16f/	.	.	.	.	.	.	.	.	.	.
.	.	16g/JJ	.	.	.	.	.	.	.	.	.	.
.	.	16a/LL	.	.	.	.	.	.	.	.	.	.
.	.	16f/	.	.	.	.	.	.	.	.	.	.
.	.	16dd/	.	.	.	.	.	.	.	.	.	.
.	.	16cc/JJ	.	.	.	.	.	.	.	.	.	.
4G/	4C\] 4D 4F	16bn\LL	.	4C/	-mus	.	4D/ 4F	-mus	.	4Bn\	-mus-	.
.	.	16dd\	.	.	.	.	.	.	.	.	.	.
.	.	16gg\	.	.	.	.	.	.	.	.	.	.
.	.	16ff\JJ	.	.	.	.	.	.	.	.	.	.
=15	=15	=15	=15	=15	=15	=15	=15	=15	=15	=15	=15	=15
!	!	!	!	!	!	!	!	!	!	!LO:TX:a:t=P:problem=w tekście błędnie połączone słowa "laudamustebe"	!	!
2E/ 2G	[2C\	16cc\LL 16ee	.	4C/	te	.	4E/	te	.	4c\	-te	.
.	.	16dd\ 16ff	.	.	.	.	.	.	.	.	.	.
.	.	16ee\ 16gg	.	.	.	.	.	.	.	.	.	.
.	.	16ff\JJ 16aa	.	.	.	.	.	.	.	.	.	.
.	.	16ee\LL 16gg	.	4r	.	.	4r	.	.	4r	.	.
.	.	16cc\	.	.	.	.	.	.	.	.	.	.
.	.	16ee\ 16gg	.	.	.	.	.	.	.	.	.	.
.	.	16cc\JJ	.	.	.	.	.	.	.	.	.	.
4E\ 4G\	4C\_	16ee\LL	.	8C/	be-	.	8E/	be-	.	8c\	be-	.
.	.	16gg\	.	.	.	.	.	.	.	.	.	.
.	.	16ccc\	.	8C/	-ne-	.	8E/	-ne-	.	8c\	-ne-	.
.	.	16bb-X\JJ	.	.	.	.	.	.	.	.	.	.
=16	=16	=16	=16	=16	=16	=16	=16	=16	=16	=16	=16	=16
2F/ 2A	2C\_	16aa\LL	.	4.C/	-di-	.	4.F/	-di-	.	4.A\	-di-	.
.	.	16gg\	.	.	.	.	.	.	.	.	.	.
.	.	16ff\	.	.	.	.	.	.	.	.	.	.
.	.	16gg\JJ	.	.	.	.	.	.	.	.	.	.
.	.	16aa\LL	.	.	.	.	.	.	.	.	.	.
.	.	16ff\	.	.	.	.	.	.	.	.	.	.
.	.	16ddd\	.	8C/	-ci-	.	8F/	-ci-	.	8A\	-ci-	.
.	.	16ccc\JJ	.	.	.	.	.	.	.	.	.	.
4D/ 4F 4G	4C\_	16bbn\LL	.	4C/	-mus	.	4D/ 4F	-mus	.	4Bn\	-mus	.
.	.	16ddd\	.	.	.	.	.	.	.	.	.	.
.	.	16fff\	.	.	.	.	.	.	.	.	.	.
.	.	16bb\JJ	.	.	.	.	.	.	.	.	.	.
=17	=17	=17	=17	=17	=17	=17	=17	=17	=17	=17	=17	=17
2E/ 2G	2C\_	16ccc\LL	.	4C/	te	.	4E/	te	.	4c\	te	.
.	.	16gg\	.	.	.	.	.	.	.	.	.	.
.	.	16ee\	.	.	.	.	.	.	.	.	.	.
.	.	16gg\JJ	.	.	.	.	.	.	.	.	.	.
.	.	16eee\LL	.	4C/	a-	.	4r	.	.	4r	.	.
.	.	16ccc\	.	.	.	.	.	.	.	.	.	.
.	.	16gg\	.	.	.	.	.	.	.	.	.	.
.	.	16ccc\JJ	.	.	.	.	.	.	.	.	.	.
4E/ 4G 4B-X	4C\_	16eee\LL	.	4C/	-do-	.	8G/	a-	.	8e\	a-	.
.	.	16ccc\	.	.	.	.	.	.	.	.	.	.
.	.	16gg\	.	.	.	.	8G/	-do-	.	8e\	-do-	.
.	.	16ccc\JJ	.	.	.	.	.	.	.	.	.	.
=18	=18	=18	=18	=18	=18	=18	=18	=18	=18	=18	=18	=18
!!LO:LB:g=original
*	*	*	*	*	*	*	*^	*	*	*	*	*
2F/ 2A	2C\_	16fff\LL	.	2C/	-ra-	.	2A/	2A\	-ra-	.	2f\	-ra-	.
.	.	16ccc\	.	.	.	.	.	.	.	.	.	.	.
.	.	16aa\	.	.	.	.	.	.	.	.	.	.	.
.	.	16ccc\JJ	.	.	.	.	.	.	.	.	.	.	.
.	.	16aa\LL	.	.	.	.	.	.	.	.	.	.	.
.	.	16ff\	.	.	.	.	.	.	.	.	.	.	.
.	.	16aa\	.	.	.	.	.	.	.	.	.	.	.
.	.	16ccc\JJ	.	.	.	.	.	.	.	.	.	.	.
4D/ 4F 4G	4C\]	16fff\LL	.	4C/	-mus	.	4Bn\	4ryy	-mus	.	4f\	-mus	.
.	.	16ddd\	.	.	.	.	.	.	.	.	.	.	.
.	.	16bbn\	.	.	.	.	.	.	.	.	.	.	.
.	.	16ddd\JJ	.	.	.	.	.	.	.	.	.	.	.
*	*	*	*	*	*	*	*v	*v	*	*	*	*	*
=19	=19	=19	=19	=19	=19	=19	=19	=19	=19	=19	=19	=19
*	*	*	*	*^	*	*	*	*	*	*	*	*
2E/ 2G	[2C\	16eee\LL	.	2C/	2ryy	te	.	2c\	te	.	2e\	te	.
.	.	16ccc\	.	.	.	.	.	.	.	.	.	.	.
.	.	16gg\	.	.	.	.	.	.	.	.	.	.	.
.	.	16ccc\JJ	.	.	.	.	.	.	.	.	.	.	.
.	.	16eee\LL	.	.	.	.	.	.	.	.	.	.	.
.	.	16ccc\	.	.	.	.	.	.	.	.	.	.	.
.	.	16gg\	.	.	.	.	.	.	.	.	.	.	.
.	.	16ccc\JJ	.	.	.	.	.	.	.	.	.	.	.
4E/ 4G	4C\]	16eee\LL	.	4G/	4C\	glo-	.	4c\	glo-	.	4e\	glo-	.
.	.	16ccc\	.	.	.	.	.	.	.	.	.	.	.
.	.	16gg\	.	.	.	.	.	.	.	.	.	.	.
.	.	16ccc\JJ	.	.	.	.	.	.	.	.	.	.	.
*v	*v	*	*	*	*	*	*	*	*	*	*	*	*
=20	=20	=20	=20	=20	=20	=20	=20	=20	=20	=20	=20	=20
2.C/ 2.D 2.F 2.G	16ddd\LL	.	4.F/	4.C\	-ri-	.	4.Bn\	-ri-	.	4.d\	-ri-	.
.	16bb-\	.	.	.	.	.	.	.	.	.	.	.
.	16gg\	.	.	.	.	.	.	.	.	.	.	.
.	16bb-\JJ	.	.	.	.	.	.	.	.	.	.	.
.	16ddd\LL	.	.	.	.	.	.	.	.	.	.	.
.	16bb-\	.	.	.	.	.	.	.	.	.	.	.
.	16gg\	.	8F/	8C\	-fi-	.	8B\	-fi-	.	8d\	-fi-	.
.	16bb-\JJ	.	.	.	.	.	.	.	.	.	.	.
.	16ddd\LL	.	8F/	8C\	-ca-	.	8B\	-ca-	.	8d\	-ca-	.
.	16bb-\	.	.	.	.	.	.	.	.	.	.	.
.	16gg\	.	8F/	8C\	-mus	.	8B\	-mus	.	8d\	-mus	.
.	16bb-\JJ	.	.	.	.	.	.	.	.	.	.	.
=21	=21	=21	=21	=21	=21	=21	=21	=21	=21	=21	=21	=21
*^	*	*	*	*	*	*	*	*	*	*	*	*
2.E/ 2.G	2.C\	16ccc\LL	.	4E/	4C\	te	.	4c\	te	.	4c\	te	.
.	.	16gg\	.	.	.	.	.	.	.	.	.	.	.
.	.	16ee\	.	.	.	.	.	.	.	.	.	.	.
.	.	16gg\JJ	.	.	.	.	.	.	.	.	.	.	.
.	.	16ccc\LL	.	4r	4ryy	.	.	4r	.	.	4r	.	.
.	.	16gg\	.	.	.	.	.	.	.	.	.	.	.
.	.	16ee\	.	.	.	.	.	.	.	.	.	.	.
.	.	16gg\JJ	.	.	.	.	.	.	.	.	.	.	.
.	.	16ccc\LL	.	4C/	4C\	Gra-	.	4c\	Gra-	.	[4e\	Gra-	.
.	.	16gg\	.	.	.	.	.	.	.	.	.	.	.
.	.	16ee\	.	.	.	.	.	.	.	.	.	.	.
.	.	16gg\JJ	.	.	.	.	.	.	.	.	.	.	.
*v	*v	*	*	*v	*v	*	*	*	*	*	*	*	*
=22	=22	=22	=22	=22	=22	=22	=22	=22	=22	=22	=22
4AA\ 4A	4ee\ 4aa 4ccc	fp	4.AA/	-ti-	.	4.c\	-ti-	.	4.e\]	-ti-	.
4r	4r	.	.	.	.	.	.	.	.	.	.
.	.	.	8AA/	.	.	8Bn\	.	.	8d\	.	.
4r	4r	.	8A\L	-as	.	4A\	-as	.	4c\	-as	.
.	.	.	8G\J	.	.	.	.	.	.	.	.
=23	=23	=23	=23	=23	=23	=23	=23	=23	=23	=23	=23
4FF/ 4F	4ff\ 4aa 4ddd	.	4.F\	a-	.	4.A/	a-	.	4.f\	a-	.
4r	4r	.	.	.	.	.	.	.	.	.	.
.	.	.	8F\	.	.	8G/	.	.	8e\	.	.
4r	4r	.	8F\L	-gi-	.	8F/L	-gi-	.	8d\L	-gi-	.
.	.	.	8D\J	.	.	8A/J	.	.	8f\J	.	.
=24	=24	=24	=24	=24	=24	=24	=24	=24	=24	=24	=24
*	*^	*	*	*	*	*	*	*	*	*	*
2.GG/ 2.G	4r	4ryy	.	2G\	-mus	.	2E/	-mus	.	(2c\	-mus	.
.	4cc/ 4ee	2g\	.	.	.	.	.	.	.	.	.	.
.	4bn/ 4dd 4ff	.	.	4GG/	ti-	.	4F/	ti-	.	4Bn\	ti-	.
*	*v	*v	*	*	*	*	*	*	*	*	*	*
=25	=25	=25	=25	=25	=25	=25	=25	=25	=25	=25	=25
2CC/ 2C	2g\ 2cc 2ee	.	2C/	-bi	.	2E/	-bi	.	2c\)	-bi	.
4r	4r	.	8c\	pro-	.	8c\	pro-	.	8c\	pro-	.
.	.	.	8Bn\	-pter	.	8Bn\	-pter	.	8Bn\	-pter	.
=26	=26	=26	=26	=26	=26	=26	=26	=26	=26	=26	=26
!!LO:LB:g=original
*	*^	*	*	*	*	*	*	*	*	*	*
4r	4r	4ryy	.	[2.A\	ma-	.	[2.A\	ma-	.	[2.A\	ma-	.
8r	8r	8ryy	.	.	.	.	.	.	.	.	.	.
(8C#X\L	8a/L	8e\L 8g	.	.	.	.	.	.	.	.	.	.
8D\	8a/ 8f	8d\	.	.	.	.	.	.	.	.	.	.
8E\J	8g/J 8a	8c#X\J	.	.	.	.	.	.	.	.	.	.
=27	=27	=27	=27	=27	=27	=27	=27	=27	=27	=27	=27	=27
4F\)	2a/	4d\ 4f	.	2A\]	-gnam	.	2A\]	-gnam	.	2A\]	-gnam	.
4F#X\	.	4c\ 4e-X	.	.	.	.	.	.	.	.	.	.
4G\	4g/	4c\ 4en	.	4G\	.	.	4G/	.	.	4G/	.	.
*	*v	*v	*	*	*	*	*	*	*	*	*	*
=28	=28	=28	=28	=28	=28	=28	=28	=28	=28	=28	=28
4A\	4c/ 4f	.	4.F\	glo-	.	4.F/	glo-	.	4.F/	glo-	.
4A-X\	4Bn/ 4d 4f	.	.	.	.	.	.	.	.	.	.
.	.	.	8F\	-ri-	.	8F/	-ri-	.	8F/	-ri-	.
!	!	!	!LO:TX:a:t=P:problem=w tekście błędnie połączone słowa "gloriamtuam"	!	!	!LO:TX:a:t=P:problem=w tekście błędnie połączone słowa "gloriamtuam"	!	!	!LO:TX:a:t=P:problem=w tekście błędnie połączone słowa "gloriamtuam"	!	!
4G\	4c/ 4e	.	4E\	-am	.	4E/	-am	.	4E/	-am	.
=29	=29	=29	=29	=29	=29	=29	=29	=29	=29	=29	=29
*	*^	*	*	*	*	*	*	*	*	*	*
2.GG/ 2.G	2d/	2c\	.	2.D\	tu-	.	2.D/	tu-	.	2.D/	tu-	.
.	4d/	4Bn\	.	.	.	.	.	.	.	.	.	.
*	*v	*v	*	*	*	*	*	*	*	*	*	*
=30	=30	=30	=30	=30	=30	=30	=30	=30	=30	=30	=30
2CC/ 2C	4.c/ 4.e	.	4C/	-am	.	4C/	-am	.	4C/	-am	.
.	.	.	4r	.	.	4r	.	.	4r	.	.
.	8c/L 8e	.	.	.	.	.	.	.	.	.	.
4r	8d/ 8f	.	4r	.	.	4r	.	.	4r	.	.
.	8e/J 8g	.	.	.	.	.	.	.	.	.	.
=31	=31	=31	=31	=31	=31	=31	=31	=31	=31	=31	=31
2.FF/ 2.F	4.f/ 4.a	.	4.F\	Do-	.	4.F/	Do-	.	4.A\	Do-	.
.	8g/ 8b-	.	8F\	-mi-	.	8G/	-mi-	.	8B-\	-mi-	.
.	4a/ 4cc	.	4F\	-ne	.	4A/	-ne	.	4c\	-ne	.
=32	=32	=32	=32	=32	=32	=32	=32	=32	=32	=32	=32
*	*^	*	*	*	*	*	*	*	*	*	*
4EE/ 4E	8cc/L	4c\ 4g	.	4E\	De-	.	4G/	De-	.	8c\L	De-	.
.	8b-/J	.	.	.	.	.	.	.	.	8B-\J	.	.
4FF/ 4F	8a/	8c\ 8f	.	4F\	-us	.	4F/	-us	.	4A\	-us	.
.	(<8f/L 8a	8ryy	.	.	.	.	.	.	.	.	.	.
4r	8g/ 8b-	4ryy	.	4r	.	.	4r	.	.	4r	.	.
.	8a/J) 8cc	.	.	.	.	.	.	.	.	.	.	.
=33	=33	=33	=33	=33	=33	=33	=33	=33	=33	=33	=33	=33
2BBB-/ 2BB-	4.b-/ 4.dd	2f\	.	4BB-/	Rex	.	4.B-\	Rex	.	4.d\	Rex	.
.	.	.	.	4BB-/	coe-	.	.	.	.	.	.	.
.	8a/ 8cc	.	.	.	.	.	8A\	coe-	.	8c\	coe-	.
8BBB-/L 8BB-	8g/L 8b-	4d\	.	8BB-/	-les-	.	8G/	-les-	.	8B-\	-les-	.
8BBBn/J 8BBn	8f/J 8a	.	.	8BBn/	-tis	.	8F/	-tis	.	8A\	-tis	.
*	*v	*v	*	*	*	*	*	*	*	*	*	*
=34	=34	=34	=34	=34	=34	=34	=34	=34	=34	=34	=34
2.CC/ 2.C	4.e/ 4.g	.	4C/	De-	.	4E/	De-	.	4G/	De-	.
.	.	.	8C/	-us	.	8E/	-us	.	8G/	-us	.
.	8f/L 8a	.	8C/	pa-	.	8F/	pa-	.	8A/	pa-	.
.	8e/ 8g 8b-	.	8C/	-ter	.	8G/	-ter	.	8B-/	-ter	.
.	8f/J 8a	.	8C/	o-	.	8F/	o-	.	8A/	o-	.
=35	=35	=35	=35	=35	=35	=35	=35	=35	=35	=35	=35
2.CC/ 2.C	2e/ 2g	.	2C/	-mni-	.	2E/	-mni-	.	2G/	-mni-	.
.	4d/ 4f	.	4C/	-po-	.	4D/	-po-	.	4F/	-po-	.
=36	=36	=36	=36	=36	=36	=36	=36	=36	=36	=36	=36
!!LO:PB:g=original
2CC/ 2C	4.c/ 4.e	.	2C/	-tens	.	2C/	-tens	.	2E/	-tens	.
.	8c/L 8e	.	.	.	.	.	.	.	.	.	.
4r	8d/ 8f	.	4r	.	.	4r	.	.	4r	.	.
.	8e/J 8g	.	.	.	.	.	.	.	.	.	.
=37	=37	=37	=37	=37	=37	=37	=37	=37	=37	=37	=37
!LO:SIC:s=2.F:v	!	!	!	!	!	!	!	!	!	!	!
2.FF/ 2.G	4.f/ 4.a	.	4.F\	Do-	.	4.F/	Do-	.	4.A\	Do-	.
.	8g/ 8b-	.	8F\	-mi-	.	8G/	-mi-	.	8B-\	-mi-	.
.	4a/ 4cc	.	4F\	-ne	.	4A\	-ne	.	4c\	-ne	.
=38	=38	=38	=38	=38	=38	=38	=38	=38	=38	=38	=38
*	*^	*	*	*	*	*	*	*	*	*	*
4EE/ 4E	8cc/L	4c\ 4g	.	4E\	fi-	.	4G/	fi-	.	8c\L	fi-	.
.	8b-/J	.	.	.	.	.	.	.	.	8B-\J	.	.
4FF/ 4F	8a/	8c\ 8f	.	4F\	-li	.	4F/	-li	.	4A\	-li	.
.	8f/L 8a	8ryy	.	.	.	.	.	.	.	.	.	.
4r	8g/ 8b-	4ryy	.	4r	.	.	4r	.	.	4r	.	.
.	8a/J 8cc	.	.	.	.	.	.	.	.	.	.	.
=39	=39	=39	=39	=39	=39	=39	=39	=39	=39	=39	=39	=39
2BBB-/ 2BB-	4.b-/ 4.dd	2f\	.	4BB-/	u-	.	4.B-\	u-	.	4.d\	u-	.
.	.	.	.	4BB-/	-ni-	.	.	.	.	.	.	.
.	8a/ 8cc	.	.	.	.	.	8A/	-ni-	.	8c\	-ni-	.
8BBB-/L 8BB-	8g/L 8b-	4d\	.	8BB-/	-ge-	.	8G/	-ge-	.	8B-\	-ge-	.
8BBBn/J 8BBn	8f/J 8a	.	.	8BBn/	-ni-	.	8F/	-ni-	.	8A\	-ni-	.
=40	=40	=40	=40	=40	=40	=40	=40	=40	=40	=40	=40	=40
2.CC/ 2.C	4.e/ 4.g	2.c\	.	4C/	-te	.	4.E/	-te	.	4.G/	-te	.
.	.	.	.	4C/	Je-	.	.	.	.	.	.	.
.	8e/L 8g	.	.	.	.	.	8E/L	Je-	.	8G/L	Je-	.
.	8f/ 8a	.	.	4C/	-su	.	8F/J	.	.	8A/J	.	.
.	8e/J 8g	.	.	.	.	.	8E/	-su	.	8G/	-su	.
=41	=41	=41	=41	=41	=41	=41	=41	=41	=41	=41	=41	=41
2.CC/ 2.C	4.a/	4.f\	.	2.C/	Chri-	.	4.F/	Chri-	.	4.A\	Chri-	.
.	8g/ 8b-	8e\	.	.	.	.	8G/	.	.	8B-\	.	.
.	8g/L	4e\	.	.	.	.	4E/	.	.	8G/	.	.
.	8g/J 8cc	.	.	.	.	.	.	.	.	8c\	.	.
=42	=42	=42	=42	=42	=42	=42	=42	=42	=42	=42	=42	=42
2FF/ 2F	8a/L	8f\	.	2F\	-ste	.	2F/	-ste	.	2A\	-ste	.
.	8b-/ 8dd	8ryy	.	.	.	.	.	.	.	.	.	.
.	8a/ 8cc	2ryy	.	.	.	.	.	.	.	.	.	.
.	8f/ 8a	.	.	.	.	.	.	.	.	.	.	.
4r	8g/ 8b-	.	.	4r	.	.	4r	.	.	4r	.	.
.	8f/J 8a	.	.	.	.	.	.	.	.	.	.	.
*	*v	*v	*	*	*	*	*	*	*	*	*	*
=43	=43	=43	=43	=43	=43	=43	=43	=43	=43	=43	=43
*tremolo	*	*	*	*	*	*	*	*	*	*	*
8CC/L	4.g/ 4.b-	.	4.C/	Do-	.	4.G/	Do-	.	4.B-\	Do-	.
8C/	.	.	.	.	.	.	.	.	.	.	.
8CC/	.	.	.	.	.	.	.	.	.	.	.
8C/	8f/ 8a	.	8C/	-mi-	.	8F/	-mi-	.	8A\	-mi-	.
8CC/	4e/ 4g	.	4C/	-ne	.	4E/	-ne	.	4G/	-ne	.
8C/J	.	.	.	.	.	.	.	.	.	.	.
=44	=44	=44	=44	=44	=44	=44	=44	=44	=44	=44	=44
8CC/L	4f/ 4a	.	2C/	De-	.	(4F/	De-	.	(4A\	De-	.
8C/	.	.	.	.	.	.	.	.	.	.	.
8CC/	4e/ 4g	.	.	.	.	4E/	.	.	4G/	.	.
8C/	.	.	.	.	.	.	.	.	.	.	.
8CC/	4f/ 4a	.	4C/	-us	.	4F/)	-us	.	4A\)	-us	.
8C/J	.	.	.	.	.	.	.	.	.	.	.
=45	=45	=45	=45	=45	=45	=45	=45	=45	=45	=45	=45
!!LO:LB:g=original
8CC/L	4.g/ 4.b-	.	2C/	A-	.	4.G/	A-	.	4.B-\	A-	.
8C/	.	.	.	.	.	.	.	.	.	.	.
8CC/	.	.	.	.	.	.	.	.	.	.	.
8C/	8f/ 8a	.	.	.	.	8F/	-gnus	.	8A\	-gnus	.
8CC/	4e/ 4g	.	4C/	-gnus	.	4E/	.	.	4G/	.	.
8C/J	.	.	.	.	.	.	.	.	.	.	.
=46	=46	=46	=46	=46	=46	=46	=46	=46	=46	=46	=46
8CC/L	4f/ 4a	.	2C/	De-	.	(4F/	De-	.	4A\	De-	.
8C/	.	.	.	.	.	.	.	.	.	.	.
8CC/	4g/ 4b-	.	.	.	.	4G/	.	.	4B-\	.	.
8C/	.	.	.	.	.	.	.	.	.	.	.
8CC/	4f/ 4a	.	4C/	-i	.	4F/)	-i	.	4A\	-i	.
8C/J	.	.	.	.	.	.	.	.	.	.	.
*Xtremolo	*	*	*	*	*	*	*	*	*	*	*
=47	=47	=47	=47	=47	=47	=47	=47	=47	=47	=47	=47
*	*	*	*	*	*	*^	*	*	*	*	*
2.CC/ 2.C	4.e/ 4.g 4.b-	.	4.C/	fi-	.	4.G/	4.E\	fi-	.	4.B-\	fi-	.
.	8e/ 8g 8b-	.	8C/	-li-	.	8G/	8E\	-li-	.	8B-\	-li-	.
.	4e/ 4g 4b-	.	4C/	-us	.	4G/	4E\	-us	.	4B-\	-us	.
=48	=48	=48	=48	=48	=48	=48	=48	=48	=48	=48	=48	=48
2.CC#X/ 2.C#X	2e/ 2g 2b-	.	2.C#X/	pa-	.	2.G/	2.E\	pa-	.	2B-\	pa-	.
.	4e/ 4g 4a	.	.	.	.	.	.	.	.	4A\	.	.
=49	=49	=49	=49	=49	=49	=49	=49	=49	=49	=49	=49	=49
2CC#X;/ 2C#X	2e;/ 2g 2a	.	2C#X;/	-tris	.	2G;/	2E\	-tris	.	2A;\	-tris	.
4CCn/ 4Cn	4e-X/ 4f 4a	.	4Cn/	qui	.	4F/	4E-X\	qui	.	4A\	qui	.
=50	=50	=50	=50	=50	=50	=50	=50	=50	=50	=50	=50	=50
2BBB-/ 2BB-	2d/ 2f 2b-	.	4BB-/	tol-	.	4F/	4D\	tol-	.	8B-/L	tol-	.
.	.	.	.	.	.	.	.	.	.	8F/J	.	.
.	.	.	4BB-/	-lis	.	4F/	4D\	-lis	.	4F/	-lis	.
4CC/ 4C	4e-X/ 4f 4a	.	4C/	pec-	.	4F/	4E-X\	pec-	.	4A/	pec-	.
=51	=51	=51	=51	=51	=51	=51	=51	=51	=51	=51	=51	=51
2BBB-/ 2BB-	2d/ 2f 2b-	.	2BB-/	-ca-	.	2F/	2D\	-ca-	.	(4B-\	-ca-	.
.	.	.	.	.	.	.	.	.	.	4F\)	.	.
8BBB-/L 8BB-	4f\ 4b- 4dd	.	8BB-/L	-ta	.	4B-/	4B-\	-ta	.	4d\	-ta	.
8DD/J 8D	.	.	8D/J	.	.	.	.	.	.	.	.	.
*	*	*	*	*	*	*v	*v	*	*	*	*	*
=52	=52	=52	=52	=52	=52	=52	=52	=52	=52	=52	=52
2FF/ 2F	2.b-\ 2.dd	.	2F\	mun-	.	2.B-\	mun-	.	2.d\	mun-	.
8EEn/L 8En	.	.	8En\L	.	.	.	.	.	.	.	.
8FF/J 8F	.	.	8F\J	.	.	.	.	.	.	.	.
=53	=53	=53	=53	=53	=53	=53	=53	=53	=53	=53	=53
2FF/ 2F	2a/ 2cc	.	2F\	-di	.	2A\	-di	.	2c\	-di	.
4FF/ 4F	8f/L 8a 8cc	.	8F\	mi-	.	8A\	mi-	.	8B-\	mi-	.
.	8f/J 8a 8cc	.	8F\	-se-	.	8A\	-se-	.	8c\	-se-	.
=54	=54	=54	=54	=54	=54	=54	=54	=54	=54	=54	=54
*	*^	*	*	*	*	*	*	*	*	*	*
2FF/ 2F	4b-/ 4dd	2f\	.	4F\	-re-	.	4B-\	-re-	.	4d\	-re-	.
.	4a/ 4cc	.	.	4F\	-re	.	4A\	-re	.	4c\	-re	.
4AAA/ 4AA	4f/ 4cc 4ee-X	4ryy	.	8AA/	mi-	.	8c\	mi-	.	8e-X\	mi-	.
.	.	.	.	8AA/	-se-	.	8c\	-se-	.	8e-\	-se-	.
*	*v	*v	*	*	*	*	*	*	*	*	*	*
=55	=55	=55	=55	=55	=55	=55	=55	=55	=55	=55	=55
!!LO:LB:g=original
!LO:N:vis=4	!	!	!	!	!	!	!	!	!	!	!
4.BBB-/ 4.BB-	4.f/ 4.b- 4.dd	.	4.BB-/	-re-	.	4.B-\	-re-	.	4.d\	-re-	.
8EE-X/ 8E-X	8g/ 8b- 8ee-X	.	8E-X\	-re	.	8G\	-re	.	8e-X\	-re	.
4FF/ 4F	8f/L 8b- 8dd	.	4F\	no-	.	8B-\L	no-	.	8d\L	no-	.
.	8e-X/J 8a 8cc	.	.	.	.	8A\J	.	.	8c\J	.	.
=56	=56	=56	=56	=56	=56	=56	=56	=56	=56	=56	=56
2FF#X/ 2F#X	2d/ 2a 2cc	.	2F#X\	-bis	.	2A\	-bis	.	2c\	-bis	.
4FF#/ 4F#	4d/ 4a 4cc	.	4F#\	qui	.	4A\	qui	.	4c\	qui	.
=57	=57	=57	=57	=57	=57	=57	=57	=57	=57	=57	=57
2GG\ 2G	2d/ 2g 2b-	.	4G\	tol-	.	8G/L	tol-	.	4B-\	tol-	.
.	.	.	.	.	.	8D/J	.	.	.	.	.
.	.	.	4G\	-lis	.	4D/	-lis	.	4B-\	-lis	.
4FF#X/ 4F#X	4d/ 4a 4cc	.	4F#X\	pec-	.	4A/	pec-	.	4c\	pec-	.
=58	=58	=58	=58	=58	=58	=58	=58	=58	=58	=58	=58
2GG/ 2G	2d/ 2g 2b-	.	2G\	-ca-	.	2G/	-ca-	.	4B-\	-ca-	.
.	.	.	.	.	.	.	.	.	4G\	-ta	.
4FFn/ 4Fn	4d/ 4a 4dd	.	4Fn\	-ta	.	4A/	-ta	.	4d\	.	.
=59	=59	=59	=59	=59	=59	=59	=59	=59	=59	=59	=59
*	*^	*	*	*	*	*	*	*	*	*	*
2.EE-X/ 2.E-X	2dd/	2g\	.	2.E-X\	mun-	.	2.G/	mun-	.	2d\	mun-	.
.	4cc#X/	4ryy	.	.	.	.	.	.	.	4c#X\	.	.
*	*v	*v	*	*	*	*	*	*	*	*	*	*
=60	=60	=60	=60	=60	=60	=60	=60	=60	=60	=60	=60
2.DD/ 2.D	2.f#X/ 2.a 2.dd	.	2D\	-di	.	2F#X/	-di	.	2d\	-di	.
.	.	.	4r	.	.	4r	.	.	4r	.	.
=61	=61	=61	=61	=61	=61	=61	=61	=61	=61	=61	=61
2.CC/ 2.C	2.f#X/ 2.a 2.ee-X	.	4.C/	sus-	.	4.F#X/	sus-	.	4.e-X\	sus-	.
.	.	.	8C/	-ci-	.	8F#/	-ci-	.	8e-\	-ci-	.
.	.	.	4C/	-pe	.	4F#/	-pe	.	4e-\	-pe	.
=62	=62	=62	=62	=62	=62	=62	=62	=62	=62	=62	=62
*	*^	*	*	*	*	*	*	*	*	*	*
2BBB-/ 2BB-	2dd/	2g\	.	2BB-/	de-	.	2G/	de-	.	2d\	de-	.
4EE-X/ 4E-X	4cc/	4g\	.	4E-X\	-pre-	.	4G/	-pre-	.	4c\	-pre-	.
*	*v	*v	*	*	*	*	*	*	*	*	*	*
=63	=63	=63	=63	=63	=63	=63	=63	=63	=63	=63	=63
2.DD/ 2.D	4.g/ 4.b-	.	4.D\	-ca-	.	4.G/	-ca-	.	4.B-\	-ca-	.
.	8f#X/L 8a 8cc	.	8D\	-ti-	.	8A/	-ti-	.	8c\	-ti-	.
.	8g/ 8b-	.	8D\	-o-	.	8G/	-o-	.	8B-\	-o-	.
.	8f#/J 8a 8cc	.	8D\	-nem	.	8A/	-nem	.	8c\	-nem	.
=64	=64	=64	=64	=64	=64	=64	=64	=64	=64	=64	=64
*	*^	*	*	*	*	*	*	*	*	*	*
4EE-X/ 4E-X	4b-/	2g\	.	4E-X\	.	.	2G/	.	.	4B-\	.	.
!	!	!	!	!	!	!	!LO:TX:b:t=P:problem=sylaba "no" pomiędzy ðźwiękami	!	!	!LO:TX:b:t=P:problem=sylaba "no" pomiędzy ðźwiękami	!	!
4CC/ 4C	2a/	.	.	4C\	no-	.	.	.	.	2A\	no-	.
4DD/ 4D	.	4f#X/	.	4D\	.	.	4F#X/	no-	.	.	.	.
*	*v	*v	*	*	*	*	*	*	*	*	*	*
=65	=65	=65	=65	=65	=65	=65	=65	=65	=65	=65	=65
!!LO:PB:g=original
2GG\ 2G	2g/	.	2G\	-stram	.	2G/	-stram	.	2G/	-stram	.
4BB-\ 4B-	4b-/	.	4B-\	qui	.	4B-\	qui	.	4B-\	qui	.
=66	=66	=66	=66	=66	=66	=66	=66	=66	=66	=66	=66
4.D\ 4.d	4.dd\	.	4.d\	Se-	.	4.d\	Se-	.	4.d\	Se-	.
8BB-\ 8B-	8b-/	.	8B-\	-des	.	8B-\	-des	.	8B-\	-des	.
4GG\ 4G	4g/	.	4G\	ad	.	4G/	ad	.	4G/	ad	.
=67	=67	=67	=67	=67	=67	=67	=67	=67	=67	=67	=67
4.E-X\ 4.e-X	4.ee-X\	.	4.E-X\	dexte-	.	4.e-X\	dexte-	.	4.e-X\	dexte-	.
8C\ 8c	8cc\	.	8C/	.	.	8c\	.	.	8c\	.	.
4AA\ 4A	4a/	.	4AA/	-ram	.	4A\	-ram	.	4A\	-ram	.
=68	=68	=68	=68	=68	=68	=68	=68	=68	=68	=68	=68
*	*^	*	*	*	*	*	*	*	*	*	*
[2.DD/ [2.D	2dd/	2f#X\ 2a	.	[2.D/	pa-	.	[2.d\	pa-	.	[2.d\	pa-	.
.	4dd/	4g\ 4b-	.	.	.	.	.	.	.	.	.	.
=69	=69	=69	=69	=69	=69	=69	=69	=69	=69	=69	=69	=69
2DD/] 2D]	2dd/	2f#X\ 2a	.	2D/]	-tris	.	2d\]	-tris	.	2d\]	-tris	.
4DD/ 4D	4a/	4d\ 4f#X	.	8D/	mi-	.	8F#X/	mi-	.	8A\	mi-	.
.	.	.	.	8D/	-se-	.	8F#/	-se-	.	8A\	-se-	.
*	*v	*v	*	*	*	*	*	*	*	*	*	*
=70	=70	=70	=70	=70	=70	=70	=70	=70	=70	=70	=70
2DD/ 2D	4d/ 4g 4b-	.	4D/	-re-	.	4G/	-re-	.	4B-\	-re-	.
.	4d/ 4f#X 4a	.	4D/	-re	.	4F#X/	-re	.	4A\	-re	.
4FF#X/ 4F#X	4d/ 4a 4cc	.	8F#X\	mi-	.	8A\	mi-	.	8c\	mi-	.
.	.	.	8F#\	-se-	.	8A\	-se-	.	8c\	-se-	.
=71	=71	=71	=71	=71	=71	=71	=71	=71	=71	=71	=71
2GG/ 2G	2d/ 2g 2b-	.	4G\	-re-	.	4G/	-re-	.	4B-\	-re-	.
.	.	.	4G\	-re	.	4G/	-re	.	4B-\	-re	.
4EEn/ 4En	4c/ 4g 4cc	.	8En\	mi-	.	8G/	mi-	.	8c\	mi-	.
.	.	.	8E\	-se-	.	8G/	-se-	.	8c\	-se-	.
=72	=72	=72	=72	=72	=72	=72	=72	=72	=72	=72	=72
2.FF/ 2.F	2c/ 2f 2a-X	.	4F\	-re-	.	4F/	-re-	.	4A-X\	-re-	.
.	.	.	4F\	-re	.	4F/	-re	.	4A-\	-re	.
.	4f/ 4a-X 4cc	.	4r	.	.	4r	.	.	4r	.	.
=73	=73	=73	=73	=73	=73	=73	=73	=73	=73	=73	=73
!!LO:LB:g=original
*	*^	*	*	*	*	*	*	*	*	*	*
*	*	*^	*	*	*	*	*	*	*	*	*	*
!	!	!	!	!	!	!	!	!LO:N:vis=4	!	!	!	!	!
2.DD-X/ 2.D-X	2.ff/	4.a-X\	2.f\	.	2.D-X/	no-	.	(4.A-X\	no-	.	2.f\	no-	.
.	.	8an\L	.	.	.	.	.	8An\L	.	.	.	.	.
.	.	8b-\	.	.	.	.	.	8B-\	.	.	.	.	.
.	.	8bn\J	.	.	.	.	.	8Bn\J)	.	.	.	.	.
*	*	*v	*v	*	*	*	*	*	*	*	*	*	*
=74	=74	=74	=74	=74	=74	=74	=74	=74	=74	=74	=74	=74
!	!LO:N:vis=2.	!	!	!	!	!	!	!	!	!	!	!
2CC/ 2C	(4.cc/ 4.ee	2.g\	.	2C/	-bis	.	2c\	-bis	.	2en\	-bis	.
.	8cc/L	.	.	.	.	.	.	.	.	.	.	.
4r	8bn/ 8dd	.	.	4r	.	.	4r	.	.	4r	.	.
.	8b-X/J) 8ee	.	.	.	.	.	.	.	.	.	.	.
*	*v	*v	*	*	*	*	*	*	*	*	*	*
=75	=75	=75	=75	=75	=75	=75	=75	=75	=75	=75	=75
!	!	!	!LO:TX:b:t=P:problem="f" z boku, na pięciolinii	!	!LO:DY:b:rj	!LO:TX:b:t=P:problem="f" z boku, na pięciolinii	!	!LO:DY:b:rj	!LO:TX:b:t=P:problem="f" z boku, na pięciolinii	!	!LO:DY:b:rj
2.FF/ 2.F	2.f\ 2.a 2.cc 2.ff	f	4.F\	Quo-	f	4.A\	Quo-	f	4.f\	Quo-	f
.	.	.	8F\	-ni-	.	8A\	-ni-	.	8f\	-ni-	.
.	.	.	4F\	-am	.	4A\	-am	.	4f\	-am	.
=76	=76	=76	=76	=76	=76	=76	=76	=76	=76	=76	=76
2.DD/ 2.D	2.f\ 2.a 2.dd 2.ff	.	4.D\	quo-	.	4.A\	quo-	.	4.f\	quo-	.
.	.	.	8D\	-ni-	.	8A\	-ni-	.	8f\	-ni-	.
.	.	.	8D\	-am	.	8A\	-am	.	8f\	-am	.
.	.	.	8D\	tu	.	8A\	tu	.	8f\	tu	.
=77	=77	=77	=77	=77	=77	=77	=77	=77	=77	=77	=77
*	*^	*	*	*	*	*	*	*	*	*	*
2BBB-/ 2BB-	2b-/ 2dd 2ff	2g\	.	2BB-/	so-	.	2G/	so-	.	2f\	so-	.
4CC/ 4C	4cc/ 4ee	4g\ 4b-	.	4C/	-lus	.	4G\ 4B-	-lus	.	4e\	-lus	.
*	*v	*v	*	*	*	*	*	*	*	*	*	*
=78	=78	=78	=78	=78	=78	=78	=78	=78	=78	=78	=78
2.F\ 2.A 2.c	16a\LL 16cc 16ff	.	2.F\	Sanc-	.	2.A\	Sanc-	.	2.f\	Sanc-	.
.	16cc\	.	.	.	.	.	.	.	.	.	.
.	16dd\	.	.	.	.	.	.	.	.	.	.
.	16ee\JJ	.	.	.	.	.	.	.	.	.	.
.	16ff\LL	.	.	.	.	.	.	.	.	.	.
.	16gg\	.	.	.	.	.	.	.	.	.	.
.	16aa\	.	.	.	.	.	.	.	.	.	.
.	16bb-\JJ	.	.	.	.	.	.	.	.	.	.
.	16ccc\LL	.	.	.	.	.	.	.	.	.	.
.	16aa\	.	.	.	.	.	.	.	.	.	.
.	16ccc\	.	.	.	.	.	.	.	.	.	.
.	16aa\JJ	.	.	.	.	.	.	.	.	.	.
=79	=79	=79	=79	=79	=79	=79	=79	=79	=79	=79	=79
4F\ 4A 4c	4ff\	.	2F\	-tus	.	2A\	-tus	.	2f\	-tus	.
4FF/ 4C 4F	4aa\ 4ccc 4fff	.	.	.	.	.	.	.	.	.	.
4F\ 4A 4c	16a\LL	.	4F\	tu	.	4A\	tu	.	4c\	tu	.
.	16cc\	.	.	.	.	.	.	.	.	.	.
.	16ff\	.	.	.	.	.	.	.	.	.	.
.	16ee-X\JJ	.	.	.	.	.	.	.	.	.	.
=80	=80	=80	=80	=80	=80	=80	=80	=80	=80	=80	=80
!!LO:LB:g=original
*^	*	*	*	*	*	*	*	*	*	*	*
2B-/ 2d	2F\	16dd\LL	.	2F\	so-	.	2B-\	so-	.	2d\	so-	.
.	.	16cc\	.	.	.	.	.	.	.	.	.	.
.	.	16b-\	.	.	.	.	.	.	.	.	.	.
.	.	16cc\JJ	.	.	.	.	.	.	.	.	.	.
.	.	16dd\LL	.	.	.	.	.	.	.	.	.	.
.	.	16b-\	.	.	.	.	.	.	.	.	.	.
.	.	16gg\	.	.	.	.	.	.	.	.	.	.
.	.	16ff\JJ	.	.	.	.	.	.	.	.	.	.
4G/ 4B- 4c	[4F\	16ee\LL	.	4F\	-lus	.	4G\ 4B-	-lus	.	4e\	-lus	.
.	.	16gg\	.	.	.	.	.	.	.	.	.	.
.	.	16ccc\	.	.	.	.	.	.	.	.	.	.
.	.	16bb-\JJ	.	.	.	.	.	.	.	.	.	.
=81	=81	=81	=81	=81	=81	=81	=81	=81	=81	=81	=81	=81
2.A/ 2.c	2.F\]	16ff\LL 16aa	.	4.F\	do-	.	4.A\	do-	.	4.f\	do-	.
.	.	16gg\ 16bb-	.	.	.	.	.	.	.	.	.	.
.	.	16aa\ 16ccc	.	.	.	.	.	.	.	.	.	.
.	.	16bb-\JJ 16ddd	.	.	.	.	.	.	.	.	.	.
.	.	16aa\LL 16ccc	.	.	.	.	.	.	.	.	.	.
.	.	16ff\	.	.	.	.	.	.	.	.	.	.
.	.	16aa\ 16ccc	.	8F\	-mi-	.	8A\	-mi-	.	8f\	-mi-	.
.	.	16ff\JJ	.	.	.	.	.	.	.	.	.	.
.	.	16aa\LL	.	8F\	-nus	.	8A\	-nus	.	8c\	-nus	.
.	.	16ccc\	.	.	.	.	.	.	.	.	.	.
.	.	16fff\	.	8F\	tu	.	8A\	tu	.	8c\	tu	.
.	.	16eee-X\JJ	.	.	.	.	.	.	.	.	.	.
=82	=82	=82	=82	=82	=82	=82	=82	=82	=82	=82	=82	=82
2B-/ 2d	2F\	16ddd\LL	.	4F\	so-	.	4B-\	so-	.	4d\	so-	.
.	.	16ccc\	.	.	.	.	.	.	.	.	.	.
.	.	16bb-\	.	.	.	.	.	.	.	.	.	.
.	.	16ccc\JJ	.	.	.	.	.	.	.	.	.	.
.	.	16ddd\LL	.	4F\	-lus	.	4B-\	-lus	.	4d\	-lus	.
.	.	16bb-\	.	.	.	.	.	.	.	.	.	.
.	.	16gg\	.	.	.	.	.	.	.	.	.	.
.	.	16ff\JJ	.	.	.	.	.	.	.	.	.	.
4G/ 4B- 4c	[4F\	16ee\LL	.	4F\	Al-	.	4G\ 4B-	Al-	.	4e\	Al-	.
.	.	16gg\	.	.	.	.	.	.	.	.	.	.
.	.	16ccc\	.	.	.	.	.	.	.	.	.	.
.	.	16bb-\JJ	.	.	.	.	.	.	.	.	.	.
=83	=83	=83	=83	=83	=83	=83	=83	=83	=83	=83	=83	=83
2A/ 2c	2F\]	16ff\LL 16aa	.	4.F\	-tis-	.	4.A\	-tis-	.	4.f\	-tis-	.
.	.	16gg\ 16bb-	.	.	.	.	.	.	.	.	.	.
.	.	16aa\ 16ccc	.	.	.	.	.	.	.	.	.	.
.	.	16bb-\JJ 16ddd	.	.	.	.	.	.	.	.	.	.
.	.	16aa\LL 16ccc	.	.	.	.	.	.	.	.	.	.
.	.	16ff\	.	.	.	.	.	.	.	.	.	.
.	.	16aa\ 16ccc	.	8F\	-si-	.	8A\	-si-	.	8f\	-si-	.
.	.	16ff\JJ	.	.	.	.	.	.	.	.	.	.
4A/ 4c 4e-X	[4F\	16aa\LL	.	4F\	-mus	.	4A\	-mus	.	4c\	-mus	.
.	.	16ccc\	.	.	.	.	.	.	.	.	.	.
.	.	16fff\	.	.	.	.	.	.	.	.	.	.
.	.	16eee-X\JJ	.	.	.	.	.	.	.	.	.	.
=84	=84	=84	=84	=84	=84	=84	=84	=84	=84	=84	=84	=84
2B-/ 2d	2F\]	16ddd\LL	.	2F\	Je-	.	2B-\	Je-	.	2d\	Je-	.
.	.	16bb-\	.	.	.	.	.	.	.	.	.	.
.	.	16ff\	.	.	.	.	.	.	.	.	.	.
.	.	16bb-\JJ	.	.	.	.	.	.	.	.	.	.
.	.	16ddd\LL	.	.	.	.	.	.	.	.	.	.
.	.	16bb-\	.	.	.	.	.	.	.	.	.	.
.	.	16fff\	.	.	.	.	.	.	.	.	.	.
.	.	16ddd\JJ	.	.	.	.	.	.	.	.	.	.
4A/ 4c	4F\	16ccc\LL	.	4F\	-su	.	4A\	-su	.	4c\	-su	.
.	.	16aa\	.	.	.	.	.	.	.	.	.	.
.	.	16fff\	.	.	.	.	.	.	.	.	.	.
.	.	16ccc\JJ	.	.	.	.	.	.	.	.	.	.
=85	=85	=85	=85	=85	=85	=85	=85	=85	=85	=85	=85	=85
!!LO:PB:g=original
*	*	*	*	*	*	*	*	*	*	*^	*	*
2.G/ 2.B- 2.c	[2.F\	16bb-\LL	.	2.F\	Chri-	.	2.G\	Chri-	.	2.e/	2.B-\	Chri-	.
.	.	16gg\	.	.	.	.	.	.	.	.	.	.	.
.	.	16ee\	.	.	.	.	.	.	.	.	.	.	.
.	.	16ccc\JJ	.	.	.	.	.	.	.	.	.	.	.
.	.	16bb-\LL	.	.	.	.	.	.	.	.	.	.	.
.	.	16gg\	.	.	.	.	.	.	.	.	.	.	.
.	.	16ee\	.	.	.	.	.	.	.	.	.	.	.
.	.	16ccc\JJ	.	.	.	.	.	.	.	.	.	.	.
.	.	16bb-\LL	.	.	.	.	.	.	.	.	.	.	.
.	.	16gg\	.	.	.	.	.	.	.	.	.	.	.
.	.	16ee\	.	.	.	.	.	.	.	.	.	.	.
.	.	16ccc\JJ	.	.	.	.	.	.	.	.	.	.	.
=86	=86	=86	=86	=86	=86	=86	=86	=86	=86	=86	=86	=86	=86
4A/ 4c	4F\]	(>16ccc\LL	.	2F\	-ste	.	2F/	-ste	.	2f/	2A\	-ste	.
.	.	16ff\	.	.	.	.	.	.	.	.	.	.	.
.	.	16aa\	.	.	.	.	.	.	.	.	.	.	.
.	.	16ccc\JJ	.	.	.	.	.	.	.	.	.	.	.
4r	2ryy	16fff\LL	.	.	.	.	.	.	.	.	.	.	.
.	.	16ccc\	.	.	.	.	.	.	.	.	.	.	.
.	.	16aa\	.	.	.	.	.	.	.	.	.	.	.
.	.	16ff\JJ)	.	.	.	.	.	.	.	.	.	.	.
(16A\LL	.	(>16aa\LL	.	4A\	com	.	4A\	com	.	4A/	4A\	com	.
16B-\	.	16bb-\	.	.	.	.	.	.	.	.	.	.	.
16Bn\	.	16bbn\	.	.	.	.	.	.	.	.	.	.	.
16c\JJ)	.	16ccc\JJ)	.	.	.	.	.	.	.	.	.	.	.
*v	*v	*	*	*	*	*	*	*	*	*v	*v	*	*
=87	=87	=87	=87	=87	=87	=87	=87	=87	=87	=87	=87
4D\ 4d	4dd\ 4ddd	.	2d\	Sanc-	.	2d\	Sanc-	.	2d\	Sanc-	.
4r	4r	.	.	.	.	.	.	.	.	.	.
4C\ 4c	4cc\ 4ccc	.	4c\	-to	.	4c\	-to	.	4c\	-to	.
=88	=88	=88	=88	=88	=88	=88	=88	=88	=88	=88	=88
4BBn\ 4Bn	4bn\ 4bbn	.	2Bn\	Spi-	.	2Bn\	Spi-	.	2Bn\	Spi-	.
4r	4r	.	.	.	.	.	.	.	.	.	.
4C\ 4c	4cc\ 4ccc	.	4c\	-ri-	.	4c\	-ri-	.	4c\	-ri-	.
=89	=89	=89	=89	=89	=89	=89	=89	=89	=89	=89	=89
4AA-X\ 4A-X	4a-X\ 4aa-X	.	2A-X\	-tu	.	2A-X\	-tu	.	2A-X\	-tu	.
4r	4r	.	.	.	.	.	.	.	.	.	.
4GG\ 4G	4g\ 4gg	.	4G\	in	.	4G\	in	.	4G\	in	.
=90	=90	=90	=90	=90	=90	=90	=90	=90	=90	=90	=90
4.FF/ 4.F	4.f\ 4.ff	.	4.F\	glo-	.	4.F/	glo-	.	4.F/	glo-	.
8GG/ 8G	8g\ 8gg	.	8G\	-ri-	.	8G/	-ri-	.	8G/	-ri-	.
4EE/ 4E	4e\ 4ee	.	4E\	-a	.	4E/	-a	.	4E/	-a	.
=91	=91	=91	=91	=91	=91	=91	=91	=91	=91	=91	=91
4GG\ 4G	4g\ 4gg	.	(4G\	De-	.	(4G/	De-	.	(4G/	De-	.
4AA\ 4A	4a\ 4aa	.	4A\)	.	.	4A/)	.	.	4A/)	.	.
4FF\ 4F	4f\ 4ff	.	4F\	-i	.	4F/	-i	.	4F/	-i	.
=92	=92	=92	=92	=92	=92	=92	=92	=92	=92	=92	=92
!!LO:LB:g=original
2EE/ 2E	2cc\ 2gg 2bb-	.	2E\	pa-	.	2G/	pa-	.	2B-X\	pa-	.
4FF/ 4F	4cc\ 4ff 4aa	.	4F\	-tris	.	4F/	-tris	.	4A\	-tris	.
=93	=93	=93	=93	=93	=93	=93	=93	=93	=93	=93	=93
*	*^	*	*	*	*	*	*	*	*	*	*
*	*	*^	*	*	*	*	*	*	*	*	*	*
!	!	!	!	!	!LO:N:vis=2	!	!	!	!	!	!	!	!
2.CC/ 2.C	2.gg/	2ff\	2.cc\	.	2.C/	A-	.	(2F/	A-	.	2.G/	A-	.
.	.	4ee\	.	.	.	.	.	4E/)	.	.	.	.	.
*	*v	*v	*v	*	*	*	*	*	*	*	*	*	*
=94	=94	=94	=94	=94	=94	=94	=94	=94	=94	=94	=94
2FF/ 2F	(16a\LL 16ff 16aa	.	2F\	-men	.	2F/	-men	.	2A\	-men	.
.	16ff\	.	.	.	.	.	.	.	.	.	.
.	16aa\	.	.	.	.	.	.	.	.	.	.
.	16ccc\JJ	.	.	.	.	.	.	.	.	.	.
.	16fff\LL	.	.	.	.	.	.	.	.	.	.
.	16ccc\	.	.	.	.	.	.	.	.	.	.
.	16aa\	.	.	.	.	.	.	.	.	.	.
.	16ff\JJ)	.	.	.	.	.	.	.	.	.	.
(16A\LL	(16aa\LL	.	4A\	com	.	4A/	com	.	4A\	com	.
16B-\	16bb-\	.	.	.	.	.	.	.	.	.	.
16Bn\	16bbn\	.	.	.	.	.	.	.	.	.	.
16c\JJ)	16ccc\JJ)	.	.	.	.	.	.	.	.	.	.
=95	=95	=95	=95	=95	=95	=95	=95	=95	=95	=95	=95
4D\ 4d	4dd\ 4ddd	.	2d\	San-	.	2d\	San-	.	2d\	San-	.
4r	4r	.	.	.	.	.	.	.	.	.	.
4C\ 4c	4cc\ 4ccc	.	4c\	-to	.	4c\	-to	.	4c\	-to	.
=96	=96	=96	=96	=96	=96	=96	=96	=96	=96	=96	=96
4BBn\ 4Bn	4bn\ 4bbn	.	2Bn\	Spi-	.	2Bn\	Spi-	.	2Bn\	Spi-	.
4r	4r	.	.	.	.	.	.	.	.	.	.
4C\ 4c	4cc\ 4ccc	.	4c\	-ri-	.	4c\	-ri-	.	4c\	-ri-	.
=97	=97	=97	=97	=97	=97	=97	=97	=97	=97	=97	=97
4AA-X\ 4A-X	4a-X\ 4aa-X	.	2A-X\	-tu	.	2A-X\	-tu	.	2A-X\	-tu	.
4r	4r	.	.	.	.	.	.	.	.	.	.
4GG\ 4G	4g\ 4gg	.	4G\	in	.	4G/	in	.	4G/	in	.
=98	=98	=98	=98	=98	=98	=98	=98	=98	=98	=98	=98
4.FF/ 4.F	4.f\ 4.ff	.	4.F\	glo-	.	4.F/	glo-	.	4.F/	glo-	.
8GG/ 8G	8g\ 8gg	.	8G\	-ri-	.	8G/	-ri-	.	8G/	-ri-	.
4EE/ 4E	4e\ 4ee	.	4E\	-a	.	4E/	-a	.	4E/	-a	.
=99	=99	=99	=99	=99	=99	=99	=99	=99	=99	=99	=99
4GG\ 4G	4g\ 4gg	.	(4G\	De-	.	(4G/	De-	.	(4G/	De-	.
4AAn\ 4An	4an\ 4aan	.	4An\)	.	.	4An/)	.	.	4An/)	.	.
4FF\ 4F	4f\ 4ff	.	4F\	-i	.	4F/	-i	.	4F/	-i	.
=100	=100	=100	=100	=100	=100	=100	=100	=100	=100	=100	=100
!!LO:LB:g=original
2EE/ 2E	2cc\ 2gg 2bb-	.	2E\	pa-	.	2G/	pa-	.	2B-\	pa-	.
4FF/ 4F	4b-\ 4ff 4aa	.	4F\	-tris	.	4F/	-tris	.	4A\	-tris	.
=101	=101	=101	=101	=101	=101	=101	=101	=101	=101	=101	=101
*	*^	*	*	*	*	*	*	*	*	*	*
*	*	*^	*	*	*	*	*	*	*	*	*	*
2.CC/ 2.C	2.gg/	2ff\	2.cc\	.	2.C/	A-	.	2F/	A-	.	2.G/	A-	.
!	!	!	!	!	!	!	!	!LO:TX:b:t=P:problem=tekst słowny "me" zamiast "men"	!	!	!	!	!
.	.	4ee\	.	.	.	.	.	4E/	-me	.	.	.	.
*	*v	*v	*v	*	*	*	*	*	*	*	*	*	*
=102	=102	=102	=102	=102	=102	=102	=102	=102	=102	=102	=102
2.FF/ 2.F	4cc\ 4ff 4aa	.	2F\	-men	.	2F/	A-	.	2A\	-men	.
.	4ff\ 4aa 4ccc	.	.	.	.	.	.	.	.	.	.
.	4ff\ 4aa 4ccc 4fff	.	4F\	A-	.	4A/	-men	.	4f\	A-	.
=103	=103	=103	=103	=103	=103	=103	=103	=103	=103	=103	=103
*	*^	*	*	*	*	*	*	*	*	*	*
2.CC/ 2.C	2ccc/ 2fff 2gg	2gg\	.	2.C/	-men	.	2.G/	A-	.	2f\	-men	.
.	4aa/ 4ccc 4eee	4gg\	.	.	.	.	.	.	.	4e\	A-	.
*	*v	*v	*	*	*	*	*	*	*	*	*	*
=104	=104	=104	=104	=104	=104	=104	=104	=104	=104	=104	=104
*^	*	*	*	*	*	*	*	*	*	*	*
2c/	2F\ 2A	16ff\LL 16aa 16ccc 16fff	.	2.F\	A-	.	2A\	-men	.	2f\	-men	.
.	.	16ccc\	.	.	.	.	.	.	.	.	.	.
.	.	16aa\	.	.	.	.	.	.	.	.	.	.
.	.	16ccc\JJ	.	.	.	.	.	.	.	.	.	.
.	.	16fff\LL	.	.	.	.	.	.	.	.	.	.
.	.	16ccc\	.	.	.	.	.	.	.	.	.	.
.	.	16aa\	.	.	.	.	.	.	.	.	.	.
.	.	16ccc\JJ	.	.	.	.	.	.	.	.	.	.
4r	4ryy	16fff\LL	.	.	.	.	4r	.	.	4r	.	.
.	.	16ccc\	.	.	.	.	.	.	.	.	.	.
.	.	16aa\	.	.	.	.	.	.	.	.	.	.
.	.	16ff\JJ	.	.	.	.	.	.	.	.	.	.
*v	*v	*	*	*	*	*	*	*	*	*	*	*
=105	=105	=105	=105	=105	=105	=105	=105	=105	=105	=105	=105
[2.BBB-/ [2.BB-	[2.dd\ [>2.ff [2.bb- [2.ddd	.	[>2.BB-/	-men	.	2.F\ [2.B-	A-	.	[2.d\	A-	.
=106	=106	=106	=106	=106	=106	=106	=106	=106	=106	=106	=106
2BBB-/] 2BB-]	2.dd\] 2.ff] 2.bb-] 2.ddd]	.	2BB-/]	A-	.	2.F\ 2.B-]	.	.	2.d\]	.	.
4DD/ 4D	.	.	4D/	.	.	.	.	.	.	.	.
=107	=107	=107	=107	=107	=107	=107	=107	=107	=107	=107	=107
[2.FF/ [2.F	[2.ff\ [2.aa [2.ccc	.	2.F\	-men-	.	2.F\ 2.A	-men-	.	2.c\	-men-	.
=108	=108	=108	=108	=108	=108	=108	=108	=108	=108	=108	=108
2FF\] 2F]	2ff\] 2aa] 2ccc]	.	2F\	-.	.	2F/ 2A	-.	.	2c\	-.	.
4r	4r	.	4r	.	.	4r	.	.	4r	.	.
==	==	==	==	==	==	==	==	==	==	==	==
*-	*-	*-	*-	*-	*-	*-	*-	*-	*-	*-	*-
!!!system-decoration: g1,s3{(s4,s5)}
!!!RDF**kern: > = above
!!!RDF**kern: < = below
!!!ENC: Andrzej Kubiczek
!!!END: 2020-02-29
!!!ENC: Marta Lawrence
!!!END: 2020-04-02
